X:32
T:Untitled. RDO.32
M:4/4
L:1/8
Q:1/2=100
S:Robert D. Owen MS,Indiana,1826.
R:.Reel
O:Indiana,USA
A:New Harmony
N:Some spare lead-in notes.
Z:vmp.Chris Partington
K:Eb
b|b2ge dfBa|gbe’g afba|gede cAaf|gefde2e:|!
|:B|eBgB fBaf|g2bg afdB|eBgB gBaf|gfede2Bc/d/|!
eBgB fBaf|g2bg afed|egce dfBd|cdec BAGF:|!
|:geeg affg|geeg Bcde|geeg affa|!
|1gefde2eb:|2(3gfe (3fed e2e|]

